X: 1
T: Saturday Night Breakdown
O: Leake County Revelers
R: reel
Z: 2020 John Chambers <jc:trillian.mit.edu>
S: https://www.facebook.com/groups/Fiddletuneoftheday/ 2020-7-4
S: https://www.facebook.com/groups/Fiddletuneoftheday/photos/
M: C|
L: 1/8
K: C
   ef | "C"g^fga- age2 | c2G2 E3E   |[1,3 "F"FGFE DEFG | "G7"AG-GA G2 :|[2,4 "F"FEFd- dcB2 | "C"c4- c2 :|
|: AB | "C"cBAG   EG2B | cBAG E2EF- |[1,3 "F"FEFE DEFG | "G7"AG-GA G2 :|[2,4 "F"FEFd- dcB2 | "C"c4- c2 :|
